!!!SOCIAL_FUNCTION:	songs of personal narratives concerning war
!!!PDT:	1918

Specific Region: Dakotas, Minnesota, Montana, Nebraska
!!!REG: Dakotas and Montana
!!!LING_GROUP: Siouan
!!!LANG: Tone
!!!OTL@ENG: I Wish to Roam
!!!ONM: No. 161
**kern
*Imale
*clefF4
*k[b-]
*M2/4
*MM92
16d
8.d
16e
=1
4d
8.A
16B-
=2
4A
8.A
16A
=3
[2A
=4
8.A]
16c
8.c
16d
=5
4c
8.A
16A
=6||
*M3/4
4G
8.F
16F
8.D
16D
=7||
*M2/4
[2F
=8||
*M3/4
8.F]
16D
8.D
16G
8.G
16F
=9
8.G
16G
8.F
16F
8.D
16D
=10||
*M2/4
[2D
=11
8.D]
16D
8.D
16F
=12
8.F
16F
8.D
16D
=13
2D
=14
[2D
=15
8.D]
16c
8.A
16c
=16||
*M3/4
4A
8.A
16A
4A
=17
4..A
16c
8.c
16c
=18||
*M2/4
4c
8.A
16B-
=19||
*M3/4
4G
8.F
16F
8.D
16D
=20
[2F
8.F]
16D
=21||
*M2/4
8.D
16G
(8.G
16F)
=22
8.G
16G
4F
=23||
*M3/4
8.D
16D
8D
8D
8.D
16D
=24
4..D
16D
8.D
16F
=25||
*M2/4
8.F
16F
8.D
16D
=26
2D
=27
4D
4r
==
*-
!!!CNT: Native American -- Sioux
!!!MRD: 1911/07//-1914///
!!!OCL: Frances Densmore
!!!YOR1: Teton Sioux Music, Bulletin 61,
!!!YOR2: Bureau of American Ethnology, Smithsonian Institution
!!!PPR: Government Printing Office
!!!PPP: Washington, D.C.
!!!PDT: 1918///
!!!ENC: Craig Stuart Sapp
!!!END: 2002/03/25/
!!!EEV: 2002/03/31/
!!!AGN: War Song/Song of Personal Narrative Concerning War
!!!MPN@@SIO: Chehu'pa
!!!MPN@ENG: Jaw
!!!TXO: Teton Sioux
!!!MLC: Standing Rock Reservation, South Dakota, United States of America
!!!ARL: 45.9/-100.7#
!!!catalog: Catalogue No. 651
!!!PPG: 390
!!!EFL: 166/245
!!!VTS: 732960215
